!!!!SEGMENT: pl-kk--kk-i-77_anonim--et-in-terra-pax.krn
!!!cenid: 17xx:2302
!!!COM: Anonim
!!!COM-rismID:
!!!CDT:
!!!CNT:
!!!OTL: Et in terra pax
!!!PDT:
!!!AGN: Sacred; Mass section
!!!SMS-siglum: PL-Kk
!!!SMS-shelfmark: Kk.I.77
!!!SMS-shelfwork: W
!!!SMS-variant: Baſso PL-Kk KK.I.77:0007-0008
!!!SMS-altvar: Baſso PL-Kk KK.I.77:0009-0010
!!!NIFC-rismSourceID: 1001155721
!!!NIFC-islandoraID: pl-kk:15830
!!!URL-pdf-islandora: https://repozytorium.nifc.pl/islandora/object/pl-kk%3A15830/datastream/PDF/view
!!!URL-scan:
!!!ONB-nifc:
!!!AIN: 1 alto 1 empty 1 tenor 1 vox
!!!key:
**kern	**text	**kern	**text	**kern	**text	**kern	**text
*part4	*part4	*part3	*part3	*part2	*part2	*part1	*part1
*staff4	*staff4	*staff3	*staff3	*staff2	*staff2	*staff1	*staff1
*Iempty	*	*Itenor	*	*Ialto	*	*Ivox	*
*I"Baſso	*	*I"Tenore	*	*I"Alto.	*	*I"Canto.	*
*I'B	*	*I'T	*	*I'A	*	*I'S	*
*clefF4	*	*clefC4	*	*clefC3	*	*clefC1	*
*k[b-]	*	*k[b-]	*	*k[b-]	*	*k[b-]	*
*F:	*	*F:	*	*F:	*	*F:	*
*M4/4	*	*M4/4	*	*M4/4	*	*M4/4	*
*met(c)	*	*met(c)	*	*met(c)	*	*met(c)	*
*2\right	*	*2\right	*	*2\right	*	*2\right	*
=1	=1	=1	=1	=1	=1	=1	=1
!LO:TX:t=P:problem=kolejność znaków&colon;BB-, B-	!	!	!	!LO:TX:a:t=Pro adventu Dni.	!	!LO:TX:t=Pro adventu Dni.	!
4.F\	Et	4.A/	Et	4.f\	Et	4.cc\	Et
8F\	in	8A/	in	8f\	in	8cc\	in
4F\	ter-	4A/	ter-	4f\	ter-	4cc\	ter-
!	!	!	!	!	!	!LO:TX:t=Hymnus Angelicus	!
4BB-/	-ra	4B-/	-ra	4f\	-ra	4dd\	-ra
=2	=2	=2	=2	=2	=2	=2	=2
4F,\	pax	2A,/	pax	2f,\	pax	2cc\	pax
*	*ij	*	*	*	*	*	*
4FF,/	pax	.	.	.	.	.	.
*	*	*	*ij	*	*ij	*	*ij
4GG,/	pax	4G,/	pax	(8d\L	pax	4b-X,\	pax
*	*Xij	*	*	*	*Xij	*	*Xij
.	.	.	.	8e,\J)	.	.	.
4AA/	ho-	(8F/L	pax	4f\	ho-	4a\	ho-
.	.	8E/J)	.	.	.	.	.
=3	=3	=3	=3	=3	=3	=3	=3
4BB-/	-mi-	8D,/	pax	4f\	-mi-	4.g/	-mi-
*	*	*	*Xij	*	*	*	*
.	.	8d\	ho-	.	.	.	.
4C/	-ni-	8.c\	-mi-	4e\	-ni-	.	.
.	.	.	.	.	.	8g/	-ni-
.	.	16c\	-ni-	.	.	.	.
2FF/	-b(us)	2c\	-b(us)	2f,\	-bus	2a,\	-b(us)
=4	=4	=4	=4	=4	=4	=4	=4
4.F\	bo-	4.A/	bo-	4f\	bo-	4cc\	bo-
.	.	.	.	4c/	-nae	4a,\	-nae
8F\	-nae	8A/	-nae	.	.	.	.
4E-X\	vo-	4G/	vo-	(8e-X\L	vo-	4b-\	Vo-
.	.	.	.	8g\J)	.	.	.
8D/L	-lun-	4A/	-lun-	(8f\L	-lun-	4cc\	-lun-
8C/J	.	.	.	8e-\J)	.	.	.
=5	=5	=5	=5	=5	=5	=5	=5
4BB-/	-ta-	4B-\	-ta-	(8d\L	-ta-	4dd\	-ta-
.	.	.	.	8e\J)	.	.	.
(8F\L	-tis	4A,\	-tis	4f,\	-tis	4cc,\	-tis,
8En,\J)	.	.	.	.	.	.	.
*	*	*	*	*	*ij	*	*
8D\	bo-	8d\	Vo-	8f\	bo-	8ff\	bo-
!	!	!	!	!	!	!LO:TX:t=Opus nobile	!
8D\	-nae	(16A\LL	-lun-	8f\	-nae	8ff\	-nae
.	.	16B-\JJ)	.	.	.	.	.
8En\	Vo-	[<4c\	-ta-	8g\	vo-	8een\	Vo-
8E\	-lun-	.	.	8g\	-lun-	8ee\	-lun-
=6	=6	=6	=6	=6	=6	=6	=6
2G\	-ta-	4c\]	.	2g\	-ta-	2ddT\	-ta-
.	.	4Bn\	.	.	.	.	.
4C,/	-tis.	4c,\	-tis.	4g,\	-tis	4cc,\	-tis,
*	*	*	*	*	*Xij	*	*
4C/	lau-	4c\	lau-	4g\	Lau-	4cc\	lau-
=7	=7	=7	=7	=7	=7	=7	=7
!	!	!	!	!	!	!	!
4.F\	-da-	4.A/	-da-	4.f\	-da-	4.cc\	-da-
8F\	-m(us)	8A/	-m(us)	8f\	-m(us)	8cc\	-m(us)
4F,\	.	4A/	Te	4f,\	Te,	4cc,\	Te
*	*ij	*	*	*	*ij	*	*
*	*	*	*	*	*	*custos:cc	*
4BB-/	lau-	4B-X/	lau-	4f\	Lau-	4dd\	lau-
=8	=8	=8	=8	=8	=8	=8	=8
!	!	!LO:LB:g=original	!	!	!	!LO:LB:g=original	!
4F\	-da-	4.A/	-da-	4f\	-da-	4cc\	-da-
*custos:GG	*	*	*	*	*	*	*
4FF/	-m(us)	.	.	4f\	-m(us)	4cc\	-m(us)
*	*Xij	*	*	*	*Xij	*	*
.	.	8A/	-m(us)	.	.	.	.
!LO:LB:g=original	!	!	!	!LO:LB:g=original	!	!	!
4GG/	Te	4G,/	Te,	4d,\	Te	4b-X,\	Te
8AA/	be-	8c\	be-	8f\	be-	8a\	be-
8AA/	-ne-	8c\	-ne-	8f\	-ne-	8a\	-ne-
=9	=9	=9	=9	=9	=9	=9	=9
8BB-/	-di-	4d\	-di-	4f\	-di-	8g/	-di-
8BB-/	-ci-	.	.	.	.	8g/	-ci-
4C/	-m(us)	8c\	-ci-	8f\	-ci-	4g/	-m(us)
.	.	8c\	-m(us)	8e\	-m(us)	.	.
2FF/	Te	2c,\	Te	2f,\	Te.	2f,/	Te:
=10	=10	=10	=10	=10	=10	=10	=10
4F\	a-	4A/	a-	4f\	a-	4cc\	a-
4FF/	-do-	4A/	-do-	4f\	-do-	4cc\	-do-
4GG/	-ra-	4G/	-ra-	4d\	-ra-	4b-X\	-ra-
4AA/	-m(us)	4c\	-m(us)	4f\	-m(us)	4a\	-m(us)
=11	=11	=11	=11	=11	=11	=11	=11
4BB-,/	Te	4d,\	Te,	4.f\	Te	4g,/	Te!
!	!	!LO:TX:t=P:problem=mixed beam	!	!	!	!	!
4E-X\	glo-	(>8G/L	glo-	.	.	4b-\	glo-
.	.	8e-X\J)	.	8g\	glo-	.	.
4F\	-ri-	8c\	-ri-	8c\L	-ri-	4.a\	-ri-
.	.	8c\	-fi-	16f\L	.	.	.
.	.	.	.	16e\JJ	.	.	.
4D\	-fi-	[4d\	-ca-	4f\	-fi-	.	.
.	.	.	.	.	.	8a\	-fi-
=12	=12	=12	=12	=12	=12	=12	=12
4BB-/	-ca-	4d\]	.	4.fT\	-ca-	4.g/	-ca-
4C/	-m(us)	4c\	-m(us)	.	.	.	.
.	.	.	.	8e\	-m(us)	8g/	-m(us)
2FF/	Te.	2c;\	Te	2f\	Te!	2a\	Te.
=13||	=13||	=13||	=13||	=13||	=13||	=13||	=13||
*M3/2	*	*M3/2	*	*M3/2	*	*M3/2	*
2.D\	Gra-	2.d\	Gra-	2.f#X\	Gra-	2.a\	Gra-
4D\	-ti-	4d\	-ti-	4f#\	-ti-	4a\	-ti-
2D\	-as	2d\	-as	2f#\	-mus	2a\	-as
=14	=14	=14	=14	=14	=14	=14	=14
2.G\	a-	2.d\	a-	2.g\	a-	2.b-X\	a-
4G\	-gi-	4d\	-gi-	4g\	-gi-	4b-\	-gi-
2E-X\	-m(us)	2c\	-m(us)	2g\	-mus	2cc\	-m(us)
=15	=15	=15	=15	=15	=15	=15	=15
1D	Ti-	1d	Ti-	1f#X	Ti-	1a	Ti-
2D\	-bi.	2d\	-bi	2f#,\	-bi	2a,\	-bi.
=16	=16	=16	=16	=16	=16	=16	=16
!	!	!LO:LB:g=original	!	!	!	!	!
2.D\	gra-	2.F#X/	Gra-	2.d\	Gra-	2.dd\	Gra-
4D\	-ti-	4F#/	-ti-	4d\	-ti-	4dd\	-ti-
2D\	-as	2F#/	-as	2d\	-as	2dd\	-as
=17	=17	=17	=17	=17	=17	=17	=17
!	!	!	!	!LO:LB:g=original	!	!LO:LB:g=original	!
2.GG/	a-	2.G/	a-	2.d\	a-	2.dd\	a-
4GG/	-gi-	4G/	-gi-	4d\	-gi-	4dd\	-gi-
2GG/	-m(us)	2G/	-m(us)	(4d\	-m(us)	2dd\	-m(us)
.	.	.	.	4e\)	.	.	.
=18	=18	=18	=18	=18	=18	=18	=18
!LO:LB:g=original	!	!	!	!	!	!	!
(2D\	Ti-	1B-X	Ti-	2f\	Ti-	2dd\	Ti-
2E-X\)	.	.	.	2g\	.	1cc,	-bi,
2F\	-bi	2A\	-bi	2f,\	-bi	.	.
=19	=19	=19	=19	=19	=19	=19	=19
(2BB-/	pro-	1G	pro-	(2d\	pro-	2b-X\	pro-
2C/)	.	.	.	2e-X\)	.	1a	-pter
2D\	-pter	2F/	-pter	2d\	-pter	.	.
=20	=20	=20	=20	=20	=20	=20	=20
(2GG/	ma-	1E-X	ma-	(2B-X/	ma-	2g/	ma-
2AA/	.	.	.	2c/))	.	1f	-gna(m)
2BB-/)	-gnam	2D/	-gnam	2B-/	-gna(m)	.	.
=21	=21	=21	=21	=21	=21	=21	=21
(2E-X\	glo-	2G/	glo-	2.c/	glo-	2e-X/	glo-
2F\)	.	2A-X/	-ri-	.	.	2d/	-ri-
.	.	.	.	4c/	-ri-	.	.
2G\	-ri-	2G/	-am	2B-/	-am	2d,/	-am
=22	=22	=22	=22	=22	=22	=22	=22
2D\	-am	1B-	Tu-	(2f\	tu-	(2dd\	Tu-
2E-X\	Tu-	.	.	2g\)	.	1ccn)	.
2F\	.	2A\	.	2f\	.	.	.
=23	=23	=23	=23	=23	=23	=23	=23
1.BB-	-am.	1.B-	-am.	1.f,	-am.	1.dd,	-am.
=24||	=24||	=24||	=24||	=24||	=24||	=24||	=24||
2.BB-/	Do-	2.B-\	Do-	2.f\	Do-	2.dd\	Do-
4BB-/	-mi-	4B-\	-mi-	4f\	-mi-	4dd\	-mi-
2BB-/	-ne	2B-\	-ne	2f\	-ne	2dd\	-ne
=25	=25	=25	=25	=25	=25	=25	=25
*	*ij	*	*ij	*	*ij	*	*ij
2.F\	Do-	2.A\	Do-	2.f\	Do-	2.cc\	Do-
4FF/	-mi-	4A\	-mi-	4f\	-mi-	4cc\	-mi-
2FF/	-ne	2A\	-ne	2f\	-ne	2cc\	-ne
*	*Xij	*	*Xij	*	*Xij	*	*Xij
=26	=26	=26	=26	=26	=26	=26	=26
(2D\	DE-	1B-	DE-	(2f\	DE-	2dd\	DE-
2E-X\)	.	.	.	2g\)	.	1cc	-us
2F\	-us	1A	-(us)	2f\	-US	.	.
=27	=27	=27-	=27	=27	=27	=27	=27
(2AA/	Rex	.	.	1f	Rex	2cc\	Rex
2BB-/	.	1G	Rex	.	.	(2dd\	cae-
*	*	*	*	*custos:e-	*	*	*
2C/)	cae-	.	.	2e-X\	cae-	2cc\)	.
=28	=28	=28	=28	=28	=28	=28	=28
!	!	!LO:LB:g=original	!	!LO:LB:g=original	!	!	!
(2E-X\	-le-	2G/	Cae-	2e-X\	-les-	1cc	-les-
2F\)	.	2A/	-les-	1d,	-tis	.	.
2G\	-stis	2G,/	-tis	.	.	2b-X\	-tis
=29	=29	=29	=29	=29	=29	=29	=29
!	!	!	!	!	!	!LO:LB:g=original	!
(2BB-/	De-	1G	De-	(2d\	DE-	2b-\	DE-
2C/	.	.	.	2e-X\)	.	1a	-us
*custos:FF	*	*	*	*	*	*	*
2D/)	-us	2F/	-us	2d\	-US	.	.
=30	=30	=30	=30	=30	=30	=30	=30
!LO:LB:g=original	!	!	!	!	!	!	!
2FF/	Pa-	2f\	Pa-	1d	Pa-	2a\	Pa-
2GG/	.	2.en\	-ter	.	.	2b-X,\	-ter
2AA/	-ter	.	.	(4c/	-ter	2a\	Om-
.	.	4d\	om-	4d/)	.	.	.
=31	=31	=31	=31	=31	=31	=31	=31
(2En\	om-	1c	-ni-	(4en\	O-	(2g\	-ni-
.	.	.	.	4f\)	.	.	.
2F\)	ni-	.	.	2.d\	-mni-	2a\)	.
2G\	-po-	2Bn\	-po-	.	.	2g\	-po-
.	.	.	.	4d\	-po-	.	.
=32	=32	=32	=32	=32	=32	=32	=32
1.C	-tens.	1.c,	-tens.	1.en	-tens.	1.g	-tens.
=33||	=33||	=33||	=33||	=33||	=33||	=33||	=33||
00.r	.	2.c\	Do-	2.e\	Do-	2.g/	Do-
.	.	4c\	-mi-	4e\	-mi-	4g/	-mi-
.	.	2c\	-ne	2e\	-ne	2g/	-ne
=34-	=34	=34	=34	=34	=34	=34	=34
.	.	2.F/	Fi-	2.f\	Fi-	2.a\	Fi-
.	.	4C/	-li	4e,\	-li	4g,/	-li-
.	.	2D/	U-	2d\	U-	2f/	-U-
=35-	=35	=35	=35	=35	=35	=35	=35
.	.	2E/	-ni-	2c/	-ni-	2e/	-ni-
.	.	2.G/	-ge-	2c/	-ge-	2.d/	-ge-
.	.	.	.	2Bn/	-ni-	.	.
.	.	4G/	-ni-	.	.	4d/	-ni-
=36-	=36	=36	=36	=36	=36	=36	=36
.	.	1.c,	-te	2c,/	-te	2e,/	-te
.	.	.	.	(4e\	Je-	4g/	JE-
.	.	.	.	4c\	.	(4e/	.
.	.	.	.	4d\	.	4f/	.
.	.	.	.	4e\)	.	4g/)	.
=37-	=37	=37	=37	=37	=37	=37	=37
!LO:N:vis=0	!	!	!	!	!	!	!
0.r	.	4A/	Je-	1f	.	1a	-su
.	.	4F/	.	.	.	.	.
.	.	4A\	.	.	.	.	.
.	.	4B-\	.	.	.	.	.
.	.	4c\	.	(4e\	.	2g\	.
.	.	4B-\	.	8f\L	.	.	.
.	.	.	.	8g\J)	.	.	.
=38-	=38	=38	=38	=38	=38	=38	=38
.	.	(4A/	.	1.a	.	1.cc	Je-
.	.	4B-/	.	.	.	.	.
.	.	4A/	.	.	.	.	.
.	.	4G/)	.	.	.	.	.
.	.	4F/	.	.	.	.	.
.	.	4D/	.	.	.	.	.
=39-	=39	=39	=39	=39-	=39	=39	=39
!LO:N:vis=1	!	!LO:LB:g=original	!	!	!	!LO:TX:a:t=P:problem=♭ above	!
1.r	.	(4G/	-su	2g,\	-su	2b-X\	-su
.	.	4B-/)	.	.	.	.	.
.	.	(2c\	Chri-	(2g\	Chri-	1a	X-
.	.	2d\)	.	2f#X\)	.	.	.
=40	=40	=40	=40	=40	=40	=40	=40
!	!	!	!	!LO:LB:g=original	!	!	!
(4GG/	JE-	1.G	-ste	2g\	-ste	1.g,	-te
4AA/	.	.	.	.	.	.	.
4BB-X/	.	.	.	2r	.	.	.
4GG/)	.	.	.	.	.	.	.
4AA/	.	.	.	2r	.	.	.
4BB-/	.	.	.	.	.	.	.
=41	=41	=41	=41	=41	=41	=41	=41
!	!	!	!	!	!	!LO:LB:g=original	!
(4C/	.	1.r	.	(4e-X\	JE-	1.r	.
4D/	.	.	.	4f\	.	.	.
4E-X/	.	.	.	4g\)	.	.	.
4C/)	.	.	.	4e-\	.	.	.
4D/	.	.	.	4f\	.	.	.
4E-/	.	.	.	4g\	.	.	.
=42	=42	=42	=42	=42	=42	=42	=42
1F	su	4F/	JE-	2f\	.	(4a\	JE-
.	.	4G/	.	.	.	4b-\	.
.	.	4A/	.	2c/	.	4cc\	.
.	.	4F/	.	.	.	4a\	.
2E-X\	.	4G/	.	4e-X\	.	4b-\)	.
.	.	4A/	.	4c\	.	4cc\	.
=43	=43	=43	=43	=43	=43	=43	=43
2.D/	JE-	4B-\	.	1f	.	4dd\	.
!	!	!	!	!	!	!LO:SIC:v:s=ee-	!
.	.	4c\	.	.	.	4ee\	.
.	.	1d	.	.	.	1ff,	-su
4C/	.	.	.	.	.	.	.
2BBn/	.	.	.	2g,\	-su	.	.
=44	=44	=44	=44	=44	=44	=44	=44
2C,/	-su	2c,\	-su	2g\	Chri-	2ee-X\	Chri-
(2F\	x-	(2c\	Chri-	2a-X\	.	1dd	.
2G\)	.	2Bn\)	.	2g\	.	.	.
=45	=45	=45-	=45	=45	=45	=45	=45
1.C	-te	1.c,	-ste	1.g	-ste.	1.een;<	-ste
=46||	=46||	=46||	=46||	=46||	=46||	=46||	=46||
2.G\	Do-	2.B-X\	Do-	2.g\	Do-	2.dd\	Do-
4G\	-mi-	4B-\	-mi-	4g\	-mi-	4dd\	-mi-
2F#X\	-ne	2A\	-ne	2an\	-ne	2dd\	-ne
=47	=47	=47	=47	=47	=47	=47	=47
2.G\	DE-	2.B-\	DE-	2.g\	DE-	2.dd\	DE-
4D\	-(us)	4A,\	-(us)	4f,\	-us	4ff,\	-(us)
2E-X\	A-	2G/	A-	2g\	A-	2ee-X\	A-
=48	=48	=48	=48	=48	=48	=48	=48
!LO:LB:g=original	!	!	!	!	!	!	!
2C/	-gn(us)	2c,\	-gn(us)	2g,\	-gn(us)	2ee-X,\	-gnus
1G	De-	(2c\	De-	1g	De-	1dd	De-
.	.	2Bn\)	.	.	.	.	.
=49	=49	=49	=49	=49	=49	=49	=49
1.C	-i,	1.c,	-i	1.g	-i,	1.een,	-i
=50	=50	=50	=50	=50	=50	=50	=50
2.F\	Fi-	2.A/	Fi-	2.fn\	Fi-	2.cc\	Fi-
4F\	-li-	4A/	-li-	4f\	-li-	4cc\	-li-
2F\	-(us)	2A/	-(us)	2f\	-us	2cc\	-us
=51	=51	=51	=51	=51	=51	=51	=51
!	!	!LO:LB:g=original	!	!	!	!	!
*	*ij	*	*	*	*	*	*ij
2.BB-/	Fi-	2.B-\	Fi-	1f	Pa-	2.dd\	Fi-
4C/	-li-	8A\L	-li-	.	.	4cc\	-li-
.	.	8G\J	.	.	.	.	.
4D\	-(us)	(4F/	-us	2f\	-tris	2b-\	-us
*	*Xij	*	*	*	*	*	*Xij
4E\	.	4G/)	.	.	.	.	.
=52	=52	=52	=52	=52	=52	=52	=52
!	!	!	!	!LO:LB:g=original	!	!	!
2F\	Pa-	(2A\	Pa-	2f\	Pa-	2a\	Pa-
(2BB-/	.	2d\)	.	(2f\	.	1g	.
2C/)	.	2c\	.	2e\)	.	.	.
=53	=53	=53	=53	=53	=53	=53	=53
!LO:TX:t=P:problem=pojedyncza kreska	!	!	!	!	!	!	!
1.FF	-tris.	1.c	-tris.	1.f,	-tris.	1.a;	-tris.
=54||	=54||	=54||	=54||	=54||	=54||	=54||	=54||
*M4/4	*	*M4/4	*	*M4/4	*	*M4/4	*
*met(c)	*	*met(c)	*	*met(c)	*	*met(c)	*
!	!	!	!	!	!	!LO:LB:g=original	!
00r	.	4r	.	4r	.	4r	.
.	.	4A/	Qui	4f\	Qui	4cc\	Qui
.	.	4A/	tol-	4f\	tol-	4cc\	tol-
.	.	8G,/	-lis	8en\	-lis	8cc\	-lis
.	.	8A/	pec-	8f\	pec-	8cc\	pec-
=55-	=55	=55	=55	=55	=55	=55	=55
.	.	2.B-\	-ca-	(8B-/L	-ca-	2dd\	-ca-
.	.	.	.	8c/J)	.	.	.
.	.	.	.	(8d/L	-ta	.	.
.	.	.	.	8e/J)	.	.	.
.	.	.	.	4f\	mun-	4.cc,\	-ta
.	.	8A,\	-ta	8c,/	-di	.	.
*	*	*	*ij	*	*	*	*ij
.	.	8A\	pec-	8c/	pec-	8cc\	pec-
=56-	=56	=56	=56	=56	=56	=56	=56
.	.	8G/	-ca-	4e-X\	-ca-	4b-X\	-ca-
.	.	8F/	-ta	.	.	.	.
*	*	*	*Xij	*	*	*	*
.	.	2F/	mun-	4f\	-ta	4a\	-ta
*	*	*	*	*	*	*	*Xij
.	.	.	.	2c/	mun-	2g/	mun-
.	.	4E/	.	.	.	.	.
=57-	=57	=57	=57	=57	=57	=57	=57
.	.	1F	-di	1F,	-di	1a,	-di
=58	=58	=58	=58	=58	=58	=58	=58
4.F\	mi-	4.F/	mi-	4.c/	mi-	4.a\	mi-
8F\	-ſe-	8F/	-ſe-	8c/	-ſe-	8a\	-se-
4E-X\	-re-	4.G/	-re-	4.e-X\	-re-	4b-\	-re-
4C/	-re	.	.	.	.	4cc,\	-re
.	.	8A/	-re	8c,/	-re	.	.
=59	=59	=59	=59	=59	=59	=59	=59
*	*ij	*	*	*	*	*	*ij
4BB-/	mi-	4B-\	mi-	(4.f\	mi-	4dd\	mi-
*	*	*custos:d	*	*	*	*	*
4F\	-ſe-	4A\	-ſe-	.	.	4cc\	-se-
.	.	.	.	8an\)	.	.	.
!	!	!LO:LB:g=original	!	!	!	!	!
4D/	-re-	4d\	-re-	2a\	-se-	[<2ff\	-re-
4AA/	-re	4c,\	-re	.	.	.	.
*	*Xij	*	*	*	*	*	*
=60	=60	=60	=60	=60	=60	=60	=60
(4GG/	no-	(4Bn\	no-	(8d\	-re-	4ff\]	.
.	.	.	.	8g\)	.	.	.
4AA/)	.	2c\)	.	(8e\	-re	4ee,\	-re
*	*	*	*	*	*	*	*Xij
.	.	.	.	8a\)	.	.	.
!	!	!	!	!LO:LB:g=original	!	!	!
(4FF/	.	.	.	(4a\	no-	2dd\	no-
4GG/)	.	4Bn\	.	4g\)	.	.	.
=61	=61	=61	=61	=61	=61	=61	=61
1C	-bis.	1c	-bis.	1g,	-bis.	1een,	-bis.
=62||	=62||	=62||	=62||	=62||	=62||	=62||	=62||
*M3/2	*	*M3/2	*	*M3/2	*	*M3/2	*
!LO:LB:g=original	!	!	!	!	!	!	!
2.F\	Qui	2.A\	Qui	2f\	Qui	2.cc\	Qui
.	.	.	.	2f\	tol-	.	.
4F\	to-	4A\	tol-	.	.	4cc\	tol-
4F,\	-lis	4A,\	-lis	2f\	-lis	4cc,\	-lis
4BB-/	pec-	4B-\	pec-	.	.	4dd\	pec-
=63	=63	=63	=63	=63	=63	=63	=63
2.F\	-ca-	1A	-ca-	2f\	pec-	1cc	-ca-
.	.	.	.	2f\	-ca-	.	.
4FF/	-ta	.	.	.	.	.	.
*	*ij	*	*	*	*	*	*
*	*	*	*	*	*	*custos:a	*
2GG/	pec-	2G,/	-ta	(4d\	-ta	2b-X\	-ta
.	.	.	.	4e\)	.	.	.
=64	=64	=64	=64	=64	=64	=64	=64
!	!	!	!	!	!	!LO:LB:g=original	!
2AA/	-ca-	(2c\	mun-	(1f	mun-	2a\	mun-
2BB-,/	-ta	2d\)	.	.	.	1g	.
*	*Xij	*	*	*	*	*	*
2C/	mun-	2c\	.	2e\)	.	.	.
=65	=65	=65	=65	=65	=65	=65	=65
!	!	!LO:TX:b:t=Vertat	!	!	!	!	!
1.F	-di	1.c	-di	1.f,	-di	1.a,	-di.
=66	=66	=66	=66	=66	=66	=66	=66
!	!	!LO:PB:g=original	!	!	!	!	!
2.BB-/	suſ-	2.B-\	suſ-	2.f\	Suſ-	2.dd\	Suſ-
4BB-/	-ci-	4B-\	-ci-	4f\	-ci-	4dd\	-ci-
2AA/	-pe	2c\	-pe	2f\	-pe	2cc\	-pe
=67	=67	=67	=67	=67	=67	=67	=67
2.BB-/	de-	2.B-\	de-	2.f\	de-	2.dd\	de-
4FF/	-pre-	4A\	-pre-	4f\	-pre-	4cc\	-pre-
!	!	!	!	!LO:TX:t=P:problem=kropka po kresce	!	!	!
2GG/	-ca-	2G/	-ca-	[<2d.\	-ca-	2b-\	-ca-
=68	=68	=68	=68	=68	=68	=68	=68
2D\	-ti-	2F/	-ti-	.	.	2a\	-ti-
.	.	.	.	4f\	-ti-	.	.
2E-X\	-o-	(4G/	-o-	2e-X\	-o-	2g/	-o-
.	.	4A/)	.	.	.	.	.
!	!	!LO:TX:t=P:problem=kropka za kreską	!	!	!	!	!
2BB-/	-nem	[2.B-\	.	2d\	-nem	(4f/	-nem
.	.	.	.	.	.	4ff\)	.
=69	=69	=69	=69	=69	=69	=69	=69
(2GG/	no-	.	.	(1d	no-	1.een	no-
.	.	4B-\	-nem	.	.	.	.
1AA)	.	1A	no-	.	.	.	.
.	.	.	.	2c#X\)	.	.	.
=70	=70	=70	=70	=70	=70	=70	=70
1D,	-stram	1A,	-stram	1d,	-stram	1dd,	-stram
2F\	Qui	2A\	Qui	2r	.	2cc\	Qui
=71	=71	=71	=71	=71	=71	=71	=71
!	!	!	!	!LO:PB:g=original	!	!	!
2.F\	se-	2.A\	se-	2r	.	2.cc\	se-
.	.	.	.	2r	.	.	.
4F\	-des	4A\	-des	.	.	4cc\	-des
*custos:F	*	*	*	*	*	*	*
2BB-/	ad	2B-\	ad	2f\	Qui	2dd\	ad
=72	=72	=72	=72	=72	=72	=72	=72
!LO:LB:g=original	!	!	!	!	!	!	!
2F\	dex-	2.A/	dex-	2.f\	se-	2.cc\	dex-
4F\	-te-	.	.	.	.	.	.
4F\	-ram	4A/	-te-	4f\	-des	4cc\	-te-
2G\	Pa-	4G,/	-ram	2g\	ad	4b-X,\	-ram
*	*	*	*ij	*	*	*	*ij
.	.	4G/	ad	.	.	4b-\	ad
=73	=73	=73	=73	=73	=73	=73	=73
2D/	-tris	2.d\	dex-	2.f\	dex-	2.a\	dex-
2r	.	.	.	.	.	.	.
!	!	!LO:TX:a:t=P:problem=♭ above	!	!	!	!	!
.	.	4B-X\	-te-	4f\	-te-	4dd\	-te-
2r	.	4c\	-ram	2e-X\	-ram	2cc,\	-ram
*	*	*	*Xij	*	*	*	*Xij
.	.	4C/	pa-	.	.	.	.
=74	=74	=74	=74	=74	=74	=74	=74
1.r	.	(2D/	.	2d\	Pa-	1b-X	Pa-
.	.	2E-X/)	.	1c	.	.	.
*	*	*	*	*	*	*custos:b-	*
.	.	2F/	-tris	.	.	2a\	.
=75	=75	=75	=75	=75	=75	=75	=75
!	!	!	!	!	!	!LO:PB:g=original	!
2r	.	2B-,\	.	2d,\	-tris	2b-,\	-tris
2F\	mi-	2A\	mi-	2f\	mi-	2cc\	mi-
2BB-/	-ſe-	2B-\	-ſe-	2f\	-se-	2dd\	-se-
=76	=76	=76	=76	=76	=76	=76	=76
!	!	!LO:LB:g=original	!	!	!	!	!
(4F\	-re-	4A\	-re-	4a|\	-re-	(4cc\	-re-
!	!	!	!	!	!	!	!
4E\	.	8B-\L	.	4g,|\	-re	8dd\L	.
.	.	8c\J	.	.	.	8ee\J)	.
4D\	.	1d	.	2f\	mi-	1ff	-re
4C\)	.	.	.	.	.	.	.
2BBn/	.	.	.	2g\	-ſe-	.	.
=77	=77	=77	=77	=77	=77	=77	=77
2C,/	-re	2c,\	-re	2.g\	-re-	2ee-X\	no-
2G\	no-	2c\	no-	.	.	1dd	.
.	.	.	.	4g\	-re	.	.
2GG/	.	2Bn\	.	2g\	no-	.	.
=78	=78	=78	=78	=78	=78	=78	=78
!LO:TX:b:t=Vertat	!	!	!	!	!	!	!
1.C	-bis.	1.c	-bis.	1.g	-bis.	1.een	-bis/
=79||	=79||	=79||	=79||	=79||	=79||	=79||	=79||
*M4/4	*	*M4/4	*	*M4/4	*	*M4/4	*
*met(c)	*	*met(c)	*	*met(c)	*	*met(c)	*
!LO:PB:g=original	!	!	!	!LO:TX:a:t=T.	!	!LO:TX:t=T.	!
4.F\	Quo-	4.A/	Quo-	4.f\	Quo-	4.cc\	Quo-
8F\	-ni-	8A/	-ni-	8f\	-ni-	8cc\	-ni-
4F,\	-am	4A,/	-am	4f\	-am	4cc\	-am
4BB-/	Tu	4B-/	Tu	4f\	Tu	4dd\	Tu
=80	=80	=80	=80	=80	=80	=80	=80
4F\	so-	4A/	so-	2f\	so-	4cc\	so-
4F,\	-l(us)	4A/	-lus	.	.	4cc,\	-l(us)
4G\	San-	4G/	San-	4d,\	-lus	4b-X\	S(an)-
8E-X,\	-ct(us)	8G/	-ct(us)	4e-X\	san-	8b-,\	-ctus
8E-\	Tu	8G/	Tu	.	.	8b-\	Tu
=81	=81	=81	=81	=81	=81	=81	=81
!	!	!	!	!LO:LB:g=original	!	!	!
4F\	so-	4F/	so-	8c,\	-ctus	4a\	so-
.	.	.	.	8c\	Tu	.	.
(8D/L	-lus	4F/,	-l(us)	8d\	so-	4a\	-l(us)
8AA/J)	.	.	.	8c,\	-lus	.	.
(4BB-/	San-	4F/	Do-	(4d\	san-	2g/	san-
4C/)	.	4E/	-mi-	4c\)	.	.	.
=82	=82	=82	=82	=82	=82	=82	=82
4FF/	-ctus	4F,/	-n(us)	4c/	-ctus	4a,\	-ct(us)
4r	.	(8F/L	Tu	4r	.	(8a\L	Tu
.	.	8G/J)	.	.	.	8b-\J)	.
4r	.	(8A/L	so-	4r	.	(8cc\L	so-
.	.	8B-/J)	.	.	.	8dd\J)	.
(8F\L	Tu	8A/L	-lus	4f\	Tu	(8cc\L	-l(us)
8G\J)	.	8G/J	.	.	.	8b-\J)	.
=83	=83	=83	=83	=83	=83	=83	=83
(8A\L	so-	4.F/	Do-	(8c\L	so-	4.a\	Do-
8B-\J)	.	.	.	8d\J)	.	.	.
(8A\L	-lus	.	.	(8c/L	-lus	.	.
8G\J)	.	8G/	-mi-	8B-/J)	.	8b-\	-mi-
4.F\	Do-	4A,/	-n(us)	4A/	Do-	4cc,\	-n(us)
.	.	4F/	Tu	4c/	-mi-	4a\	Tu
8F\	-mi-	.	.	.	.	.	.
=84	=84	=84	=84	=84	=84	=84	=84
!	!	!LO:LB:g=original	!	!	!	!	!
4E-X,\	-n(us)	4G/	so-	4.e-X,\	-nus	4b-X\	so-
4C/	Tu	4A\	-lus	.	.	8cc,\	-l(us)
.	.	.	.	8c\	tu	8cc\	al-
*	*	*	*ij	*	*	*	*
!	!	!	!	!	!	!LO:LB:g=original	!
2BB-/	so-	(8B-\L	so-	2f\	so-	(8dd\L	-tiſ-
.	.	8A\J)	.	.	.	8cc\	.
.	.	(8B-\L	-lus	.	.	8dd\	.
*	*	*	*Xij	*	*	*	*
.	.	8c\J)	.	.	.	8ee\J)	.
=85	=85	=85	=85	=85	=85	=85	=85
4AA,/	-lus	4d\	so-	4f,\	-lus	4.ff\	.
4BB-/	al-	8c,\	-l(us)	4f\	al-	.	.
.	.	8d\	al-	.	.	8ff\	-si-
!LO:LB:g=original	!	!	!	!LO:TX:t=P:problem=kropka za kreską	!	!	!
4GG/	-tiſ-	8B-\	-tiſ-	[<2g.\	-tiſ-	4ff,\	-m(us)
.	.	8B-\	-si-	.	.	.	.
4C/	.	8c,\	-m(us)	.	.	4een\	al-
*	*	*	*ij	*	*	*	*
.	.	8c\	al-	.	.	.	.
=86	=86	=86	=86	=86	=86	=86	=86
4.G\	.	4.c\	-tiſ-	.	.	4.dd\	-tiſ-
.	.	.	.	4g\	-si-	.	.
8GG/	-si-	8Bn\	-si-	.	.	8dd\	-si-
2C/	-m(us)	2c\	-mus	2g\	-m(us)	2een,\	-m(us)
*	*	*	*Xij	*	*	*	*
=87	=87	=87	=87	=87	=87	=87	=87
!	!	!LO:TX:t=P:problem=kropka za kreską	!	!	!	!	!
2.F#X\	JE-	[1.A	JE-	1.d	Je-	(2.dd\	Je-
4F#\	su	.	.	.	.	4cc\)	su
=88	=88	=88	=88	=88-	=88	=88	=88
*	*ij	*	*	*	*	*	*
2G\	JE-	.	.	.	.	[<1b-X	Je-
2GG/	-su	4G/	-su	2d\	-su	.	.
*	*Xij	*	*	*	*	*	*
.	.	4F/	.	.	.	.	.
=89	=89	=89	=89	=89	=89	=89	=89
1C	x-	4E/	Chri-	1c	Chri-	4b-\]	.
.	.	2F/	.	.	.	4a\	-su
.	.	.	.	.	.	2g/	x-
.	.	4E/	.	.	.	.	.
=90	=90	=90	=90	=90	=90	=90	=90
1FF,	-te.	1F	-ste.	1c;	-ste	1a	-te.
=91||	=91||	=91||	=91||	=91||	=91||	=91||	=91||
4r	.	4r	.	4r	.	4r	.
4F\	Cum	4A\	Cum	4f\	Cum	4cc\	Cum
4F\	san-	4A\	san-	4f\	S(an)-	4cc\	S(an)-
4BB-/	-cto	4B-\	-cto	4f\	-cto	4dd,\	-cto
=92	=92	=92	=92	=92	=92	=92	=92
*	*ij	*	*	*	*ij	*	*ij
2FF/	Cum	2A/	Spi-	2f\	Cum	2cc\	Cum
4GG/	san-	8G/L	.	4d\	S(an)-	4b-\	S(an)-
.	.	8D/J	.	.	.	.	.
4AA/	-cto	[4F/	.	4c\	-cto	4a\	-cto
*	*Xij	*	*	*	*Xij	*	*Xij
=93	=93	=93	=93	=93	=93	=93	=93
!	!	!	!	!LO:LB:g=original	!	!	!
4.C/	Spi-	4F/]	.	4.c/	Spi-	4.g/	Spi-
*	*	*custos:F	*	*	*	*	*
.	.	4E/	-ri-	.	.	.	.
8C/	-ri-	.	.	8c/	-ri-	8g/	-ri-
2FF/	-tu	4F,/	-tu	2c/	-tu	4f,/	-tu
.	.	4A/	in	.	.	4cc\	in
=94	=94	=94	=94	=94	=94	=94	=94
4r	.	4A/	glo-	4r	.	4cc\	glo-
4F\	in	8G/	-ri-	4an\	in	8b-\	-ri-
.	.	8F/	-a	.	.	8a\	-a
*	*	*	*ij	*	*	*	*ij
4E-X\	glo-	4G/	glo-	4g\	glo-	4b-\	glo-
8D/	-ri-	8A/	-ri-	8f\	-ri-	8cc\	-ri-
*	*	*	*	*	*	*custos:dd	*
8C/	-a	8A/	-a	8e-X\	-a	8cc\	-a
*	*	*	*Xij	*	*	*	*Xij
=95	=95	=95	=95	=95	=95	=95	=95
!	!	!	!	!	!	!LO:LB:g=original	!
4BB-/	De-	4.B-\	glo-	8d\	De-	4dd\	glo-
.	.	.	.	8e,\	-i	.	.
8BB-,/	-i	.	.	(4.f\	Pa-	8dd\	-ri-
8B-\	in	8c\	-ri-	.	.	8ee-X\	-a
!LO:LB:g=original	!	!	!	!	!	!	!
4B-\	glo-	4d,\	-a	.	.	[<2ff\	De-
.	.	.	.	8e-X\L	.	.	.
8A-X\	-ri-	8c\	De-	8f\)	.	.	.
8G\	-a	8B-\	-i	8g\J	.	.	.
=96	=96	=96	=96	=96	=96	=96	=96
8F\	De-	4.c\	Pa-	4.a-X\	.	4ff\]	.
8G\	-i	.	.	.	.	.	.
8A-X\	Pa-	.	.	.	.	4ee-X\	-i
8E-X\	-tris	8c,\	-tris	8g\	-tris	.	.
(4F\	A-	(4c\	A-	4a-X\	a-	2dd\	Pa-
4G\)	.	4Bn\)	.	4g\	.	.	.
=97	=97	=97	=97	=97	=97	=97	=97
1C	-men	1c	-men	1g	-men.	1cc	-tris
=98||	=98||	=98||	=98||	=98||	=98||	=98||	=98||
*M3/2	*	*M3/2	*	*M3/2	*	*M3/2	*
2.F\	A-	2.A\	A-	1f	A-	1cc	A-
8G\L	.	8B-X\L	.	.	.	.	.
8A\J	.	8c\J	.	.	.	.	.
2B-\	.	2B-\	.	(8f\L	.	2dd\	-men
.	.	.	.	8e\	.	.	.
.	.	.	.	8f\	.	.	.
.	.	.	.	8g\J)	.	.	.
=99	=99	=99	=99	=99	=99	=99	=99
*	*	*	*	*	*	*	*ij
(4A\	.	4c\	.	2.a\	.	1cc	A-
4G\	.	4B-\	.	.	.	.	.
4F\	.	4A\	.	.	.	.	.
4En\	.	8B-\L	.	4g\	.	.	.
.	.	8c\J	.	.	.	.	.
4D\)	.	2d\	.	[2f\	.	2b-\	-men
*	*	*	*	*	*	*	*Xij
4E\	.	.	.	.	.	.	.
=100	=100	=100	=100	=100	=100	=100	=100
4F\	.	2c,\	-men	1f]	.	2a\	A-
4AA/	.	.	.	.	.	.	.
*	*	*	*ij	*	*	*	*
2BB-/	.	(2d\	A-	.	.	1g	.
2C/	.	2c\)	.	2e\	.	.	.
=101	=101	=101	=101	=101	=101	=101	=101
1.FF,	-men	1.c	-men	1.f	-men	1.a	-men
*	*	*	*Xij	*	*	*	*
=102	=102	=102	=102	=102	=102	=102	=102
!	!	!LO:LB:g=original	!	!	!	!	!
2FF/	A-	2.A/	A-	2f\	A-	(2.cc\	A-
2F\	.	.	.	2d\	.	.	.
.	.	4F/	.	.	.	4a\	.
*	*	*	*	*custos:d	*	*	*
4E-X\	.	4G/	.	2e-X\	.	4b-\	.
8D/L	.	4A/	.	.	.	4cc\)	.
8C/J	.	.	.	.	.	.	.
=103	=103	=103	=103	=103	=103	=103	=103
!LO:LB:g=original	!	!	!	!LO:LB:g=original	!	!	!
2.BB-/	.	2.B-\	.	4d\	.	2.dd\	.
.	.	.	.	4e\	.	.	.
.	.	.	.	1f	.	.	.
4F\	.	4A\	.	.	.	4cc\	.
2D\	.	2d\	.	.	.	2ff\	.
=104	=104	=104	=104	=104	=104	=104	=104
(2En\	.	1c	.	2g\	.	2een\	.
2F\)	.	.	.	2an\	.	1dd	.
2G\	men	2Bn\	.	4.g\	.	.	.
.	.	.	.	8f\	.	.	.
=105	=105	=105	=105	=105	=105	=105	=105
4C\	A-	1.c,	-men	(4en\	.	1.ee,	-men
4D\	.	.	.	4f\	.	.	.
4En\	.	.	.	4g\	.	.	.
4C\	.	.	.	4e\)	.	.	.
4D\	.	.	.	4f\	.	.	.
4E\	.	.	.	4g\	.	.	.
=106	=106	=106	=106	=106	=106	=106	=106
*	*	*	*	*	*	*	*ij
2.F\	.	(2.A\	A-	4a\	.	1cc	A-
.	.	.	.	4g\	.	.	.
.	.	.	.	2.f\	.	.	.
8G\L	.	8B-\L	.	.	.	.	.
8A\J	.	8c\J)	.	.	.	.	.
4B-\	.	2B-\	.	.	.	2dd\	-men
*	*	*	*	*	*	*	*Xij
4G\	.	.	.	4g\	.	.	.
=107	=107	=107	=107	=107	=107	=107-	=107
(4A\	.	2.A\	.	4e\	.	2cc\	A-
4G\	.	.	.	8f\L	.	.	.
.	.	.	.	8g\J	.	.	.
4F\	.	.	.	1a	.	2cc\	-men
4E-X\)	.	8B-\L	.	.	.	.	.
.	.	8c\J	.	.	.	.	.
4D\	.	8d\L	.	.	.	[<2b-\	A-
.	.	8e\J	.	.	.	.	.
8C\L	.	4f\	.	.	.	.	.
8D\J	.	.	.	.	.	.	.
=108	=108	=108	=108	=108	=108	=108	=108
4E-X\	.	1e-X	.	1g	.	2b-\]	.
4D\	.	.	.	.	.	.	.
4C/	.	.	.	.	.	1a	.
8BB-/L	.	.	.	.	.	.	.
8C/J	.	.	.	.	.	.	.
4D/	.	1d\	.	[<2f\	.	.	.
4C/	.	.	.	.	.	.	.
=109	=109	=109-	=109	=109	=109	=109	=109
!	!	!	!	!	!	!LO:LB:g=original	!
4BBn/	.	.	.	2f\]	.	1g	.
4GG/	.	.	.	.	.	.	.
4C/	.	[<1c	.	1e,	-men	.	.
4BB-X/	.	.	.	.	.	.	.
4AA/	.	.	.	.	.	2f/	.
*custos:BB-	*	*	*	*	*	*	*
4FF/	.	.	.	.	.	.	.
=110	=110	=110	=110	=110	=110	=110	=110
!LO:LB:g=original	!	!	!	!	!	!	!
(4BB-/	.	2c\]	.	1d	a-	[1.f	.
4C/	.	.	.	.	.	.	.
4D/	.	2B-X\	.	.	.	.	.
4E/)	.	.	.	.	.	.	.
2F\	-men	(4A\	.	[2c/	.	.	.
.	.	8B-\L	.	.	.	.	.
.	.	8c\J)	.	.	.	.	.
=111	=111	=111	=111	=111	=111	=111	=111
1.BB-	A-	1.d	.	4c/]	.	1.f]	.
.	.	.	.	8B-X/L	.	.	.
.	.	.	.	8A/J	.	.	.
.	.	.	.	1B-X	.	.	.
=112	=112	=112	=112	=112	=112	=112	=112
!LO:TX:b:t=O. ad M. D. Gm.	!	!	!	!	!LO:N:vis=0	!	!
0.F;	-men.	0.c;	-men.	0.A;	-men.	0.f;	-men.
==	==	==	==	==	==	==	==
*-	*-	*-	*-	*-	*-	*-	*-
!!!system-decoration: [(s1,s2,s3,s4)]
!!!RDF**kern: > = above
!!!RDF**kern: < = below
!!!RDF**kern: | = vertical stroke
!!!ENC: Kamil Watkowski
!!!END: 2021-08-07
